static/img/kroki/da914bef6da4473dfe540c6685047b50.svg

<?xml version="1.0" encoding="us-ascii" standalone="no"?><svg xmlns="http://www.w3.org/2000/svg" xmlns:xlink="http://www.w3.org/1999/xlink" contentStyleType="text/css" height="374px" preserveAspectRatio="none" style="width:279px;height:374px;" version="1.1" viewBox="0 0 279 374" width="279px" zoomAndPan="magnify"><defs/><g><!--class aws_beanstalk_application--><g id="elem_aws_beanstalk_application"><rect codeLine="23" fill="#3D176E" height="39.7891" id="aws_beanstalk_application" rx="2.5" ry="2.5" style="stroke:#000D19;stroke-width:0.5;" width="265" x="7" y="328.58"/><ellipse cx="22" cy="348.4745" fill="#ADD1B2" rx="11" ry="11" style="stroke:#181818;stroke-width:1.0;"/><path d="M24.9688,354.1152 Q24.3906,354.412 23.75,354.5527 Q23.1094,354.7089 22.4063,354.7089 Q19.9063,354.7089 18.5781,353.0683 Q17.2656,351.412 17.2656,348.287 Q17.2656,345.162 18.5781,343.5058 Q19.9063,341.8495 22.4063,341.8495 Q23.1094,341.8495 23.75,342.0058 Q24.4063,342.162 24.9688,342.4589 L24.9688,345.1777 Q24.3438,344.5995 23.75,344.3339 Q23.1563,344.0527 22.5313,344.0527 Q21.1875,344.0527 20.5,345.1308 Q19.8125,346.1933 19.8125,348.287 Q19.8125,350.3808 20.5,351.4589 Q21.1875,352.5214 22.5313,352.5214 Q23.1563,352.5214 23.75,352.2558 Q24.3438,351.9745 24.9688,351.3964 L24.9688,354.1152 Z " fill="#000000"/><text fill="#D9B8FF" font-family="Helvetica" font-size="17" lengthAdjust="spacing" textLength="223" x="41" y="354.3598">aws_beanstalk_application</text></g><!--class aws_resource--><g id="elem_aws_resource"><rect codeLine="26" fill="#3D176E" height="39.7891" id="aws_resource" rx="2.5" ry="2.5" style="stroke:#000D19;stroke-width:0.5;" width="155" x="62" y="167.79"/><ellipse cx="77" cy="187.6845" fill="#ADD1B2" rx="11" ry="11" style="stroke:#181818;stroke-width:1.0;"/><path d="M79.9688,193.3252 Q79.3906,193.622 78.75,193.7627 Q78.1094,193.9189 77.4063,193.9189 Q74.9063,193.9189 73.5781,192.2783 Q72.2656,190.622 72.2656,187.497 Q72.2656,184.372 73.5781,182.7158 Q74.9063,181.0595 77.4063,181.0595 Q78.1094,181.0595 78.75,181.2158 Q79.4063,181.372 79.9688,181.6689 L79.9688,184.3877 Q79.3438,183.8095 78.75,183.5439 Q78.1563,183.2627 77.5313,183.2627 Q76.1875,183.2627 75.5,184.3408 Q74.8125,185.4033 74.8125,187.497 Q74.8125,189.5908 75.5,190.6689 Q76.1875,191.7314 77.5313,191.7314 Q78.1563,191.7314 78.75,191.4658 Q79.3438,191.1845 79.9688,190.6064 L79.9688,193.3252 Z " fill="#000000"/><text fill="#D9B8FF" font-family="Helvetica" font-size="17" lengthAdjust="spacing" textLength="113" x="96" y="193.5698">aws_resource</text></g><!--class resource--><g id="elem_resource"><rect codeLine="29" fill="#3D176E" height="39.7891" id="resource" rx="2.5" ry="2.5" style="stroke:#000D19;stroke-width:0.5;" width="113" x="83" y="7"/><ellipse cx="98" cy="26.8945" fill="#ADD1B2" rx="11" ry="11" style="stroke:#181818;stroke-width:1.0;"/><path d="M100.9688,32.5352 Q100.3906,32.832 99.75,32.9727 Q99.1094,33.1289 98.4063,33.1289 Q95.9063,33.1289 94.5781,31.4883 Q93.2656,29.832 93.2656,26.707 Q93.2656,23.582 94.5781,21.9258 Q95.9063,20.2695 98.4063,20.2695 Q99.1094,20.2695 99.75,20.4258 Q100.4063,20.582 100.9688,20.8789 L100.9688,23.5977 Q100.3438,23.0195 99.75,22.7539 Q99.1563,22.4727 98.5313,22.4727 Q97.1875,22.4727 96.5,23.5508 Q95.8125,24.6133 95.8125,26.707 Q95.8125,28.8008 96.5,29.8789 Q97.1875,30.9414 98.5313,30.9414 Q99.1563,30.9414 99.75,30.6758 Q100.3438,30.3945 100.9688,29.8164 L100.9688,32.5352 Z " fill="#000000"/><text fill="#D9B8FF" font-family="Helvetica" font-size="17" lengthAdjust="spacing" textLength="71" x="117" y="32.7798">resource</text></g><!--reverse link aws_resource to aws_beanstalk_application--><g id="link_aws_resource_aws_beanstalk_application"><path codeLine="32" d="M139.5,225.84 C139.5,256.36 139.5,297.69 139.5,328.25 " fill="none" id="aws_resource-backto-aws_beanstalk_application" style="stroke:#FFAF37;stroke-width:2.0;"/><polygon fill="none" points="139.5,207.84,133.5,225.84,145.5,225.84,139.5,207.84" style="stroke:#FFAF37;stroke-width:2.0;"/></g><!--reverse link resource to aws_resource--><g id="link_resource_aws_resource"><path codeLine="33" d="M139.5,65.05 C139.5,95.57 139.5,136.9 139.5,167.46 " fill="none" id="resource-backto-aws_resource" style="stroke:#FFAF37;stroke-width:2.0;"/><polygon fill="none" points="139.5,47.05,133.5,65.05,145.5,65.05,139.5,47.05" style="stroke:#FFAF37;stroke-width:2.0;"/></g><!--SRC=[XPBBQiCm44Nt-Wf1rW6deKq2tQI6qcv2QReFOsiK2ykI6KrgqiU_DscQ8jjvREyzp9mHAen2YLNDMrbXbI454KhZQY2ev9p8DwctdkH0Qz3ZIRTyz8wl0WkeK3wXVKSsENI9jyBafSCGv4rKFK1Uhibld3gCPm8NTXKwZgZKGWXpPZBPXZ6IKRDigdMNx0uTZDLeSeSzp9D2-aEI956ZMHUvkkhYtV_4qdoW7CMFjl2CFStUYb_gekMUY2HxXnxxiuule9HnQtaRPQy79t98hNnPWFBDdjPWGxmcC19wtjQOzgx2sLJfoKdu-HmiyltJIMZ2AiFTZs2mvGhgskxasNWdFuNuZY32u3UKOvotinPr_pKS3izF5oV0OoH-0000]--></g></svg>

<svg xmlns="http://www.w3.org/2000/svg" width="279" height="374" viewBox="0 0 279 374"><rect width="265" height="39.789" x="7" y="328.58" fill="#3D176E" rx="2.5" ry="2.5" style="stroke:#000d19;stroke-width:.5"/><circle cx="22" cy="348.474" r="11" fill="#ADD1B2" style="stroke:#181818;stroke-width:1"/><path d="M24.969 354.115q-.578.297-1.219.438-.64.156-1.344.156-2.5 0-3.828-1.64-1.312-1.657-1.312-4.782t1.312-4.781q1.328-1.656 3.828-1.656.703 0 1.344.156.656.156 1.219.453v2.719q-.625-.579-1.219-.844-.594-.281-1.219-.281-1.343 0-2.031 1.078-.687 1.062-.687 3.156t.687 3.172q.688 1.062 2.031 1.062.625 0 1.219-.265.594-.281 1.219-.86z"/><text x="41" y="354.36" fill="#D9B8FF" font-family="Helvetica" font-size="17" textLength="223">aws_beanstalk_application</text><rect width="155" height="39.789" x="62" y="167.79" fill="#3D176E" rx="2.5" ry="2.5" style="stroke:#000d19;stroke-width:.5"/><circle cx="77" cy="187.685" r="11" fill="#ADD1B2" style="stroke:#181818;stroke-width:1"/><path d="M79.969 193.325q-.578.297-1.219.438-.64.156-1.344.156-2.5 0-3.828-1.64-1.312-1.657-1.312-4.782t1.312-4.781q1.328-1.656 3.828-1.656.703 0 1.344.156.656.156 1.219.453v2.719q-.625-.578-1.219-.844-.594-.281-1.219-.281-1.344 0-2.031 1.078-.687 1.062-.687 3.156t.687 3.172q.688 1.062 2.031 1.062.625 0 1.219-.265.594-.281 1.219-.86z"/><text x="96" y="193.57" fill="#D9B8FF" font-family="Helvetica" font-size="17" textLength="113">aws_resource</text><rect width="113" height="39.789" x="83" y="7" fill="#3D176E" rx="2.5" ry="2.5" style="stroke:#000d19;stroke-width:.5"/><circle cx="98" cy="26.895" r="11" fill="#ADD1B2" style="stroke:#181818;stroke-width:1"/><path d="M100.969 32.535q-.578.297-1.219.438-.64.156-1.344.156-2.5 0-3.828-1.64-1.312-1.657-1.312-4.782t1.312-4.781q1.328-1.656 3.828-1.656.703 0 1.344.156.656.156 1.219.453v2.719q-.625-.578-1.219-.844-.594-.281-1.219-.281-1.344 0-2.031 1.078-.687 1.062-.687 3.156t.687 3.172q.688 1.062 2.031 1.062.625 0 1.219-.265.594-.281 1.219-.86z"/><text x="117" y="32.78" fill="#D9B8FF" font-family="Helvetica" font-size="17" textLength="71">resource</text><path fill="none" d="M139.5 225.84v102.41m0-120.41-6 18h12zm0-142.79v102.41m0-120.41-6 18h12z" style="stroke:#ffaf37;stroke-width:2"/></svg>
